dist/images/joy/advantages6.svg

<svg width="126" height="126" viewBox="0 0 126 126" fill="none" xmlns="http://www.w3.org/2000/svg">
<circle cx="63" cy="63" r="61.5" stroke="#E2704C" stroke-width="3"/>
<path d="M88.5195 88.4258H84.7094V56.524L87.256 59.0702C87.6046 59.4192 88.062 59.5938 88.5195 59.5938C88.977 59.5938 89.4345 59.4192 89.7831 59.0702C90.4812 58.3726 90.4812 57.2407 89.7831 56.5431L84.7117 51.4717V38.625C84.7117 37.6379 83.9117 36.8379 82.9246 36.8379H75.7761C74.7895 36.8379 73.989 37.6379 73.989 38.625V40.7491L64.7635 31.5236C64.4285 31.1885 63.9742 31 63.5 31C63.0258 31 62.5715 31.1885 62.2365 31.5236L37.2169 56.5431C36.5188 57.2412 36.5188 58.3726 37.2169 59.0702C37.9146 59.7683 39.0464 59.7683 39.744 59.0702L41.8187 56.9955V88.4258H38.4805C37.4934 88.4258 36.6934 89.2258 36.6934 90.2129C36.6934 91.2 37.4934 92 38.4805 92H43.6049H43.6058H82.9222H82.9236H88.5195C89.5066 92 90.3066 91.2 90.3066 90.2129C90.3066 89.2258 89.5062 88.4258 88.5195 88.4258ZM77.5632 40.4121H81.1375V47.8975L77.5632 44.3233V40.4121ZM45.393 53.4212L63.5 35.3147L81.1351 52.9498V88.4258H45.393V53.4212Z" fill="#373737"/>
<path d="M75.2321 55.5466C74.534 54.8485 73.4027 54.8485 72.7046 55.5466L51.3058 76.9454C50.6077 77.643 50.6077 78.7744 51.3058 79.4725C51.6548 79.8215 52.1119 79.9961 52.5693 79.9961C53.0268 79.9961 53.4843 79.8215 53.8329 79.4725L75.2316 58.0737C75.9297 57.3761 75.9297 56.2443 75.2321 55.5466Z" fill="#373737"/>
<path d="M57.7178 63.9642C60.674 63.9642 63.0791 61.5591 63.0791 58.6029C63.0791 55.6463 60.674 53.2416 57.7178 53.2416C54.7616 53.2416 52.3564 55.6463 52.3564 58.6029C52.3564 61.5591 54.7616 63.9642 57.7178 63.9642ZM57.7178 56.8158C58.7035 56.8158 59.5049 57.6172 59.5049 58.6029C59.5049 59.5881 58.703 60.39 57.7178 60.39C56.7325 60.39 55.9307 59.5881 55.9307 58.6029C55.9307 57.6172 56.7325 56.8158 57.7178 56.8158Z" fill="#373737"/>
<path d="M69.5952 70.833C66.639 70.833 64.2339 73.2382 64.2339 76.1943C64.2339 79.1505 66.639 81.5557 69.5952 81.5557C72.5514 81.5557 74.9565 79.1505 74.9565 76.1943C74.9565 73.2382 72.5514 70.833 69.5952 70.833ZM69.5952 77.9814C68.61 77.9814 67.8081 77.1796 67.8081 76.1943C67.8081 75.2086 68.61 74.4072 69.5952 74.4072C70.5809 74.4072 71.3823 75.2086 71.3823 76.1943C71.3823 77.1796 70.5809 77.9814 69.5952 77.9814Z" fill="#373737"/>
</svg>

<svg width="126" height="126" fill="none" xmlns="http://www.w3.org/2000/svg"><circle cx="63" cy="63" r="61.5" stroke="#E2704C" stroke-width="3"/><path d="M88.52 88.426h-3.81V56.524l2.546 2.546a1.78 1.78 0 001.263.524 1.786 1.786 0 001.264-3.05l-5.071-5.072V38.625c0-.987-.8-1.787-1.787-1.787h-7.149c-.986 0-1.787.8-1.787 1.787v2.124l-9.226-9.225a1.786 1.786 0 00-2.527 0l-25.02 25.02a1.786 1.786 0 102.528 2.526l2.075-2.075v31.43H38.48a1.787 1.787 0 100 3.575h50.04a1.787 1.787 0 100-3.574zM77.563 40.412h3.575v7.486l-3.575-3.575v-3.91zm-32.17 13.01L63.5 35.314 81.135 52.95v35.476H45.393V53.42z" fill="#373737"/><path d="M75.232 55.547a1.787 1.787 0 00-2.527 0l-21.4 21.398a1.786 1.786 0 102.528 2.528l21.399-21.4a1.787 1.787 0 000-2.526zm-17.514 8.417a5.367 5.367 0 005.361-5.361 5.367 5.367 0 00-5.361-5.361 5.367 5.367 0 00-5.362 5.36 5.367 5.367 0 005.362 5.362zm0-7.148c.985 0 1.787.801 1.787 1.787a1.79 1.79 0 01-1.787 1.787 1.79 1.79 0 01-1.787-1.787c0-.986.802-1.787 1.787-1.787zm11.877 14.017a5.367 5.367 0 00-5.361 5.361 5.367 5.367 0 005.361 5.362 5.367 5.367 0 005.362-5.362 5.367 5.367 0 00-5.362-5.361zm0 7.148a1.79 1.79 0 01-1.787-1.787 1.79 1.79 0 011.787-1.787 1.788 1.788 0 010 3.574z" fill="#373737"/></svg>
